svgs/sharp-regular/garlic.svg

<svg xmlns="http://www.w3.org/2000/svg" viewBox="0 0 512 512"><!--! Font Awesome Pro 6.6.0 by @fontawesome - https://fontawesome.com License - https://fontawesome.com/license (Commercial License) Copyright 2024 Fonticons, Inc. --><path d="M208 48l0 64 0 23.1 0 8.9 0 5.1-3 4.2-57.4 80.4c-12.7 17.8-19.6 39.2-19.6 61.1l0 9.2c0 53 43 96 96 96s96-43 96-96l0-9.2c0-21.9-6.8-43.3-19.6-61.1L283 209.3c-28-39.1-43-86-43-134.1L240 48l-32 0zm64 0l0 27.2c0 41.4 12.9 81.8 37 115.5l17.4 24.4c16.6 23.3 25.5 51.1 25.5 79.7l0 9.2c0 38.2-16.8 72.5-43.3 96l62.9 0c51.1 0 92.5-41.4 92.5-92.5c0-28.1-12.8-54.7-34.7-72.2L322 149.5l-18-14.4 0-23.1 0-64-32 0zM139.3 400C112.8 376.5 96 342.2 96 304l0-9.2c0-28.6 8.9-56.5 25.6-79.7l18.1-25.4-57 45.6C60.8 252.9 48 279.4 48 307.5c0 50.7 40.8 91.9 91.3 92.5zM304 0l48 0 0 48 0 64 107.3 85.8c33.3 26.7 52.7 67 52.7 109.7C512 385.1 449.1 448 371.5 448l4.5 0 0 40 0 24-48 0 0-24 0-40-16 0 0 40 0 24-48 0 0-24 0-40-16 0 0 40 0 24-48 0 0-24 0-40-16 0 0 40 0 24-48 0 0-24 0-40 4.5 0C62.9 448 0 385.1 0 307.5c0-42.7 19.4-83 52.7-109.7L160 112l0-64 0-48 48 0 96 0z"/></svg>

<svg xmlns="http://www.w3.org/2000/svg" viewBox="0 0 512 512"><!--! Font Awesome Pro 6.4.0 by @fontawesome - https://fontawesome.com License - https://fontawesome.com/license (Commercial License) Copyright 2023 Fonticons, Inc. --><path d="M208 48v64 23.1V144v5.1l-3 4.2-57.4 80.4c-12.7 17.8-19.6 39.2-19.6 61.1V304c0 53 43 96 96 96s96-43 96-96v-9.2c0-21.9-6.8-43.3-19.6-61.1L283 209.3c-28-39.1-43-86-43-134.1V48H208zm64 0V75.2c0 41.4 12.9 81.8 37 115.5l17.4 24.4c16.6 23.3 25.5 51.1 25.5 79.7V304c0 38.2-16.8 72.5-43.3 96h62.9c51.1 0 92.5-41.4 92.5-92.5c0-28.1-12.8-54.7-34.7-72.2L322 149.5l-18-14.4V112 48H272zM139.3 400C112.8 376.5 96 342.2 96 304v-9.2c0-28.6 8.9-56.5 25.6-79.7l18.1-25.4-57 45.6C60.8 252.9 48 279.4 48 307.5c0 50.7 40.8 91.9 91.3 92.5zM304 0h48V48v64l107.3 85.8c33.3 26.7 52.7 67 52.7 109.7C512 385.1 449.1 448 371.5 448H376v40 24H328V488 448H312v40 24H264V488 448H248v40 24H200V488 448H184v40 24H136V488 448h4.5C62.9 448 0 385.1 0 307.5c0-42.7 19.4-83 52.7-109.7L160 112V48 0h48 96z"/></svg>
